svg/shape/heart_half_line.svg

<?xml version="1.0" encoding="UTF-8"?>
<svg width="24px" height="24px" viewBox="0 0 24 24" version="1.1" xmlns="http://www.w3.org/2000/svg" xmlns:xlink="http://www.w3.org/1999/xlink">
    <title>heart_half_line</title>
    <g id="Icon" stroke="none" stroke-width="1" fill="none" fill-rule="evenodd">
        <g id="Shape" transform="translate(-528.000000, 0.000000)">
            <g id="heart_half_line" transform="translate(528.000000, 0.000000)">
                <path d="M24,0 L24,24 L0,24 L0,0 L24,0 Z M12.5935,23.2578 L12.5819,23.2595 L12.5109,23.295 L12.4919,23.2987 L12.4767,23.295 L12.4057,23.2595 C12.3958,23.2564 12.387,23.259 12.3821,23.2649 L12.378,23.2758 L12.3609,23.7031 L12.3659,23.7235 L12.3769,23.7357 L12.4805,23.8097 L12.4953,23.8136 L12.5071,23.8097 L12.6107,23.7357 L12.6233,23.7197 L12.6267,23.7031 L12.6096,23.2758 C12.6076,23.2657 12.601,23.2593 12.5935,23.2578 Z M12.8584,23.1453 L12.8445,23.1473 L12.6598,23.2397 L12.6499,23.2499 L12.6472,23.2611 L12.6651,23.6906 L12.6699,23.7034 L12.6784,23.7105 L12.8793,23.8032 C12.8914,23.8069 12.9022,23.803 12.9078,23.7952 L12.9118,23.7812 L12.8777,23.1665 C12.8753,23.1546 12.8674,23.147 12.8584,23.1453 Z M12.143,23.1473 C12.1332,23.1424 12.1222,23.1453 12.1156,23.1526 L12.1099,23.1665 L12.0758,23.7812 C12.0751,23.7927 12.0828,23.8019 12.0926,23.8046 L12.1083,23.8032 L12.3092,23.7105 L12.3186,23.7024 L12.3225,23.6906 L12.3404,23.2611 L12.3372,23.2485 L12.3278,23.2397 L12.143,23.1473 Z" id="MingCute" fill-rule="nonzero"></path>
                <path d="M6.54553,5.51059 C5.08561,6.34408 3.95205,8.14069 4.00156,10.3483 C4.05789,12.8602 6.04114,15.5426 10.702,18.3113 C10.8014,18.3704 10.901,18.43 10.9999981,18.4887 L10.9999981,6.11871 C9.53698,4.7529 7.88111,4.74809 6.54553,5.51059 Z M5.55393,3.77372 C7.72941,2.53171 10.5015,2.68674 12.6749,4.96363 C12.8809,5.17939 13.0000001,5.46964 13.0000001,5.77446 L13.0000001,20 C13.0000001,20.5523 12.5523,21 12.0000001,21 C11.5373,21 11.093,20.8099 10.6874,20.6039 C10.3251,20.4199 9.94815,20.1898 9.68057,20.0308 C4.89274,17.1867 2.083,14.0022 2.00206,10.3931 C1.93671,7.47934 3.43285,4.98467 5.55393,3.77372 Z" id="形状" fill="#09244B"></path>
            </g>
        </g>
    </g>
</svg>

<svg xmlns="http://www.w3.org/2000/svg" width="24" height="24"><g fill="none" fill-rule="evenodd"><path d="M24 0v24H0V0h24ZM12.594 23.258l-.012.002-.071.035-.02.004-.014-.004-.071-.036c-.01-.003-.019 0-.024.006l-.004.01-.017.428.005.02.01.013.104.074.015.004.012-.004.104-.074.012-.016.004-.017-.017-.427c-.002-.01-.009-.017-.016-.018Zm.264-.113-.014.002-.184.093-.01.01-.003.011.018.43.005.012.008.008.201.092c.012.004.023 0 .029-.008l.004-.014-.034-.614c-.003-.012-.01-.02-.02-.022Zm-.715.002a.023.023 0 0 0-.027.006l-.006.014-.034.614c0 .012.007.02.017.024l.015-.002.201-.093.01-.008.003-.011.018-.43-.003-.012-.01-.01-.184-.092Z"/><path fill="#09244B" d="M6.546 5.51c-1.46.834-2.594 2.63-2.544 4.838.056 2.512 2.04 5.195 6.7 7.963l.298.178V6.119c-1.463-1.366-3.119-1.37-4.454-.608Zm-.992-1.736c2.175-1.242 4.948-1.087 7.12 1.19.207.215.326.506.326.81V20a1 1 0 0 1-1 1c-.463 0-.907-.19-1.313-.396-.362-.184-.739-.414-1.006-.573-4.788-2.844-7.598-6.029-7.679-9.638-.065-2.914 1.43-5.408 3.552-6.62Z"/></g></svg>
